images/1inch-logo.svg

<svg width="182" height="60" viewBox="0 0 182 60" fill="none" xmlns="http://www.w3.org/2000/svg">
<path d="M71.3303 12H78.5303V40.8H85.7303V4.80005H78.5303C74.5703 4.80005 71.3303 8.04005 71.3303 12Z" fill="white"/>
<path d="M92.9304 40.8002H100.13V26.4002C100.13 22.4402 96.8904 19.2002 92.9304 19.2002V40.8002Z" fill="white"/>
<path d="M107.33 19.2002V40.8002H114.53V26.4002H121.73V33.6002C121.73 37.5602 124.97 40.8002 128.93 40.8002V26.4002C128.93 22.4402 125.69 19.2002 121.73 19.2002H107.33Z" fill="white"/>
<path d="M172.13 19.2H164.93V12C164.93 8.04005 161.69 4.80005 157.73 4.80005V33.6H143.33V26.4H150.53V19.2H143.33C139.37 19.2 136.13 22.44 136.13 26.4V33.6C136.13 37.56 139.37 40.8 143.33 40.8H164.93V26.4H172.13V33.6C172.13 37.56 175.37 40.8 179.33 40.8V26.4C179.33 22.44 176.09 19.2 172.13 19.2Z" fill="white"/>
<path d="M92.9304 12H100.13C100.13 8.04005 96.8904 4.80005 92.9304 4.80005V12Z" fill="white"/>
<path d="M81.5141 52.9633H78.5303V48.0769H81.4422V48.8797H79.4147V50.0943H81.2265V50.897H79.4147V52.1605H81.5141V52.9633Z" fill="white"/>
<path d="M94.5942 48.0769H95.6296L93.9328 50.4713L95.6944 52.9633H94.659L93.3576 51.1274L92.0634 52.9633H91.0281L92.7896 50.4713L91.1072 48.0769H92.1425L93.3791 49.8429L94.5942 48.0769Z" fill="white"/>
<path d="M108.678 51.8464L109.016 52.4885C108.858 52.6514 108.63 52.784 108.333 52.8864C108.041 52.9888 107.732 53.04 107.406 53.04C106.639 53.04 106.013 52.8096 105.529 52.3489C105.05 51.8882 104.81 51.2785 104.81 50.52C104.81 49.794 105.038 49.1914 105.493 48.7121C105.944 48.2374 106.574 48 107.384 48C108.026 48 108.537 48.1652 108.915 48.4956L108.52 49.1309C108.18 48.9121 107.801 48.8028 107.384 48.8028C106.905 48.8028 106.512 48.9587 106.205 49.2704C105.898 49.5823 105.745 49.9988 105.745 50.52C105.745 51.0319 105.905 51.446 106.227 51.7626C106.552 52.079 106.972 52.2372 107.485 52.2372C107.926 52.2372 108.324 52.1069 108.678 51.8464Z" fill="white"/>
<path d="M122.945 52.9633H122.068V50.8761H119.767V52.9633H118.883V48.0769H119.767V50.0733H122.068V48.0769H122.945V52.9633Z" fill="white"/>
<path fill-rule="evenodd" clip-rule="evenodd" d="M132.679 52.9633H133.571L134.095 51.7137H136.246L136.77 52.9633H137.712L135.583 48.063H134.807L132.679 52.9633ZM135.174 49.1729L135.907 50.9111H134.434L135.174 49.1729Z" fill="white"/>
<path d="M151.753 48.0769V52.9633H151.048L148.28 49.5777V52.9633H147.454V48.0769H148.158L150.926 51.4765V48.0769H151.753Z" fill="white"/>
<path d="M165.443 51.1343H164.227V50.3315H166.27V52.3559C166.054 52.5653 165.766 52.7328 165.407 52.8586C165.047 52.9795 164.707 53.04 164.386 53.04C163.571 53.04 162.929 52.812 162.458 52.3559C161.994 51.9044 161.761 51.2926 161.761 50.52C161.761 49.8034 161.992 49.2053 162.451 48.726C162.912 48.242 163.518 48 164.27 48C164.912 48 165.452 48.1652 165.888 48.4956L165.515 49.1797C165.39 49.0633 165.224 48.9726 165.018 48.9074C164.812 48.8377 164.599 48.8028 164.378 48.8028C163.876 48.8028 163.47 48.9564 163.163 49.2635C162.852 49.566 162.696 49.9848 162.696 50.52C162.696 51.0366 162.852 51.4531 163.163 51.7696C163.47 52.0813 163.883 52.2372 164.4 52.2372C164.582 52.2372 164.779 52.2047 164.989 52.1395C165.2 52.0697 165.352 51.9906 165.443 51.9022V51.1343Z" fill="white"/>
<path d="M179.33 52.9633H176.346V48.0769H179.258V48.8797H177.23V50.0943H179.042V50.897H177.23V52.1605H179.33V52.9633Z" fill="white"/>
<path d="M16.042 33.0635L17.722 20.411L3.12695 10.2785L16.462 14.7935L19.612 9.96348L31.1095 2.82349L56.467 16.7885L57.7795 38.1035L46.492 53.801L37.567 55.166L42.187 46.7135V38.576L38.827 32.2235L35.4145 29.966L30.1645 35.3735V41.096L26.0695 44.9285L20.872 45.5585L18.562 46.871L14.782 45.6635L13.207 39.9935L16.042 36.0035V33.0635Z" fill="white"/>
<path d="M39.352 10.1735C36.5696 9.59605 33.5246 9.75349 33.5246 9.75349C33.5246 9.75349 32.527 14.3735 26.332 15.5811C26.3846 15.5811 34.522 18.3635 39.352 10.1735Z" fill="#C0C0C0"/>
<path d="M41.8722 52.0686C45.2322 49.4436 47.7522 45.8211 48.9072 41.7261C48.9596 41.5686 49.4322 41.3061 49.7472 41.0961C50.2722 40.7811 50.7971 40.5186 50.9021 40.0986C51.1121 38.8911 51.2172 37.6311 51.2172 36.3711C51.2172 35.8986 50.7446 35.4261 50.2721 34.9536C49.9046 34.6386 49.5372 34.2711 49.5372 34.0086C49.0122 29.2311 46.8071 24.7686 43.2896 21.5136L42.9221 21.8811C46.3346 25.0836 48.5396 29.4411 49.0121 34.0611C49.0646 34.4811 49.4846 34.9011 49.9046 35.3211C50.2722 35.6361 50.6922 36.1086 50.6922 36.3186C50.6922 37.5261 50.5872 38.7336 50.3772 39.9411C50.3246 40.1511 49.8521 40.3611 49.4846 40.5711C48.9596 40.8336 48.4872 41.0961 48.3822 41.5161C47.1222 45.9786 44.2346 49.8636 40.4021 52.3836C41.0846 50.9136 43.2371 46.1361 44.3921 43.7211L44.1821 35.9511L37.5146 29.4936L33.7346 30.0186L29.5871 36.7386C29.5871 36.7386 31.5296 39.2061 28.7996 42.0936C26.1222 44.9286 24.0222 45.5586 24.0222 45.5586L22.0796 44.5086C22.6571 43.7736 23.8121 42.6711 24.7046 41.9361C26.2271 40.6761 27.7496 40.5711 27.7496 39.2061C27.8021 36.3711 24.7571 37.1586 24.7571 37.1586L23.6546 38.2086L23.1821 42.0936L20.8721 44.9811L20.6096 44.9286L16.8296 44.0886C16.8296 44.0886 19.1396 42.8811 19.5071 41.5161C19.8746 40.2036 18.7721 35.8461 18.7196 35.5836C18.7721 35.6361 19.8221 36.5286 20.2946 37.9986C21.1346 35.6886 22.2371 33.4836 22.5521 33.2736C22.8671 33.0636 27.1196 30.8061 27.1196 30.8061L25.7021 34.5336L26.7521 33.9561L29.2722 27.7611C29.2722 27.7611 31.7396 26.5536 33.5772 26.5536C36.8846 26.5011 41.7671 22.4586 39.5621 15.2136C40.1921 15.4761 51.1122 20.9361 53.0022 31.6461C54.4196 39.8886 49.7472 47.6061 41.8722 52.0686Z" fill="#C0C0C0"/>
<path d="M29.3773 11.3286C30.5848 9.91102 30.1123 7.81104 30.1123 7.81104L26.5948 13.0086C26.5423 13.0086 27.8548 13.061 29.3773 11.3286Z" fill="#CCCCCC"/>
<path d="M17.5646 39.7311L17.9846 37.6311C17.9846 37.6311 16.2521 40.6761 16.0946 41.0961C15.9371 41.5687 16.1996 42.4087 16.8821 42.3561C17.5646 42.3037 18.4046 41.3061 18.4046 40.5711C18.4046 39.6261 17.5646 39.7311 17.5646 39.7311Z" fill="#CCCCCC"/>
<path fill-rule="evenodd" clip-rule="evenodd" d="M48.7496 6.34109C48.7496 6.34109 51.3746 6.44609 54.1046 6.76109C47.962 1.93109 42.1346 0.51359 37.4096 0.51359C30.9468 0.51359 26.5537 3.15236 26.2334 3.34476L26.227 3.34859L28.2746 0.0935902C28.2746 0.0935902 20.0846 -0.69391 17.197 7.96859C16.462 6.13109 15.7796 3.45359 15.7796 3.45359C15.7796 3.45359 11.527 7.18109 13.522 13.3761C8.63957 11.5911 1.65707 9.12358 1.39457 9.07114C1.02707 9.01858 0.922073 9.17614 0.922073 9.17614C0.922073 9.17614 0.817073 9.33358 1.13207 9.59614C1.70957 10.0686 12.7346 18.2061 15.1496 19.7811C14.6246 21.6711 14.6246 22.5636 15.1496 23.4561C15.8846 24.6636 15.937 25.2936 15.832 26.1861C15.727 27.0786 14.782 34.7961 14.572 35.7411C14.4873 36.1226 14.0775 36.8975 13.6257 37.7517C12.9583 39.0137 12.1994 40.4487 12.262 41.0436C12.367 42.0411 13.732 46.2936 14.9396 46.7661C15.832 47.0811 18.037 47.7636 19.507 47.7636C20.032 47.7636 20.5046 47.6586 20.7146 47.4486C21.607 46.6611 21.8696 46.5036 22.4996 46.5036H22.657C22.7773 46.5036 22.9086 46.5146 23.0509 46.5266C23.2192 46.5407 23.4029 46.5561 23.602 46.5561C24.442 46.5561 25.5446 46.3986 26.332 45.6636C26.8765 45.1191 27.6075 44.4814 28.2943 43.8823L28.2944 43.8822C29.0646 43.2104 29.779 42.5871 30.112 42.1986C30.8996 41.2011 31.3196 39.8361 31.1096 38.4711C30.952 37.2111 31.6346 36.1086 32.422 35.0061C33.4196 33.6936 35.257 31.3311 35.257 31.3311C38.8796 34.0611 41.137 38.2086 41.137 42.8286C41.137 51.0186 33.997 57.6336 25.177 57.6336C23.812 57.6336 22.4996 57.4761 21.187 57.1611C25.2296 58.5786 28.642 59.0511 31.4246 59.0511C37.357 59.0511 40.507 56.8986 40.507 56.8986C40.507 56.8986 39.4046 58.3161 37.6196 59.9436H37.672C47.4896 58.5786 52.267 50.4936 52.267 50.4936C52.267 50.4936 51.8996 53.1186 51.427 54.9036C64.1675 45.3356 62.3968 33.4237 62.2499 32.4359L62.2459 32.409L62.242 32.3811C62.3069 32.4784 62.8327 33.1167 63.386 33.7885L63.3863 33.7889C63.7285 34.2044 64.0813 34.6326 64.342 34.9536C66.442 13.3236 48.7496 6.34109 48.7496 6.34109ZM27.3725 42.0925L27.3724 42.0926C27.2119 42.238 27.0539 42.3813 26.9096 42.5136C26.6903 42.7146 26.4647 42.9156 26.2415 43.1144L26.2415 43.1144C25.8235 43.4868 25.4143 43.8513 25.072 44.1936C24.862 44.4036 24.442 44.5086 23.812 44.5086H23.2346H22.9196H22.7096H22.237C23.0246 43.4586 25.3346 41.0436 26.122 40.5186C27.067 39.8886 27.5396 39.2586 26.962 38.1561C26.3846 37.0536 24.862 37.3161 24.862 37.3161C24.862 37.3161 25.7546 36.9486 26.542 36.9486C25.5446 36.6861 24.2846 36.9486 23.707 37.5261C23.287 37.9111 23.1937 38.9495 23.1004 39.9879C23.0537 40.507 23.0071 41.0261 22.9196 41.4636C22.6844 42.6861 21.9441 43.3612 20.8115 44.3939C20.6795 44.5143 20.5421 44.6396 20.3996 44.7711C19.6646 45.4536 19.1396 45.6636 18.7196 45.6636C17.827 45.5061 16.777 45.2436 16.042 44.9811C15.517 44.2986 14.7296 42.0411 14.5196 41.0961C14.6329 40.7183 14.991 40.0412 15.3003 39.4565L15.3004 39.4564L15.3006 39.4559L15.301 39.4553C15.4211 39.228 15.5339 39.0148 15.622 38.8386L15.7096 38.6708C16.2862 37.5667 16.6245 36.9188 16.7246 36.3186C16.9346 35.4261 17.617 29.9136 17.8796 27.6036C18.562 28.4961 19.507 29.9661 19.297 30.9111C20.8196 28.7586 19.717 26.6586 19.192 25.8186C18.7196 24.9786 18.0896 23.2986 18.6146 21.5136C19.1396 19.7286 21.0296 14.7936 21.0296 14.7936C21.0296 14.7936 21.6596 15.8961 22.552 15.6861C23.4446 15.4761 30.637 4.66109 30.637 4.66109C30.637 4.66109 32.5796 8.91358 30.532 12.0111C28.432 15.1086 26.3846 15.6861 26.3846 15.6861C26.3846 15.6861 29.272 16.2111 31.9496 14.2686C33.052 16.8411 34.102 19.5186 34.1546 19.8861C34.1277 19.9488 34.0443 20.1474 33.9234 20.4354L33.9232 20.4358L33.9231 20.4362C33.335 21.8369 31.8612 25.3474 31.687 25.6086C31.582 25.7136 30.847 25.9236 30.322 26.0286C29.4296 26.2911 28.9046 26.4486 28.6946 26.6061C28.327 26.9211 26.647 31.5411 25.8596 33.7986C24.9146 34.0611 23.9696 34.5861 23.287 35.6361C23.6546 35.3736 24.8096 35.2161 25.6496 35.1111C26.3846 35.0586 28.642 36.2661 29.2196 38.5236V38.6286C29.3246 39.4686 29.062 40.2561 28.642 40.8861C28.4802 41.0884 27.9129 41.6027 27.3728 42.0922L27.3725 42.0925ZM24.1542 39.6413C24.1256 40.1495 24.0788 40.9791 23.707 41.5161C23.7433 41.4798 23.855 41.3619 24.0007 41.2079L24.0027 41.2059L24.0031 41.2055L24.0035 41.205C24.2791 40.9139 24.6749 40.4957 24.9146 40.2561C25.0781 40.109 25.2619 39.9924 25.4376 39.881C25.8261 39.6346 26.1746 39.4136 26.1746 38.9436C26.1746 38.2086 25.177 38.0511 24.757 38.1561C24.337 38.2611 24.232 38.9436 24.1796 39.3111C24.1684 39.3895 24.162 39.5036 24.1542 39.6412V39.6413ZM44.6546 31.4886C45.1796 28.8111 45.232 26.5011 45.0746 24.6111C47.122 27.3411 48.382 30.6486 48.7496 34.0611C48.802 34.4811 49.222 34.9011 49.642 35.3211C50.0096 35.6361 50.4296 36.0561 50.4296 36.3186C50.4296 37.5261 50.3246 38.7336 50.1146 39.9411C50.0647 40.0905 49.6369 40.3345 49.2793 40.5384L49.2793 40.5385L49.222 40.5711C48.697 40.8336 48.2246 41.0961 48.1196 41.5161C46.9646 45.5586 44.497 49.1286 41.1896 51.6486C46.072 46.5561 48.4346 38.1561 44.6546 31.4886ZM48.5396 41.6736C47.3846 45.8211 44.7596 49.4961 41.347 52.1211C48.592 48.6561 53.5796 41.2536 53.5796 32.7486C53.5796 21.6711 45.1796 12.5361 34.417 11.3811C34.0496 11.9586 33.682 12.4836 33.3146 12.9036C34.102 14.8461 36.1496 19.9386 36.1496 20.2011C36.1496 20.5161 35.152 23.0886 35.047 23.1936C34.942 23.2461 33.7346 23.3511 33.262 23.3511C32.737 24.6111 32.212 25.8186 32.107 25.9761C31.9496 26.1861 31.477 26.3436 30.4796 26.6061C30.3731 26.6381 30.2558 26.6722 30.1356 26.7071C29.6632 26.8444 29.1457 26.9949 29.062 27.0786C28.7996 27.3936 27.382 31.1211 26.437 33.7461C27.697 33.5361 28.7996 33.7986 29.062 33.9036C31.1096 30.0186 32.737 27.9186 33.157 27.9186C33.2016 27.913 33.2977 27.9163 33.4363 27.9211C34.602 27.9613 38.7709 28.1049 40.507 23.9286C42.3685 19.3783 39.7484 15.4902 39.5686 15.2233C39.5658 15.2192 39.5636 15.216 39.562 15.2136C39.5637 15.2144 39.5666 15.2158 39.5704 15.2177C39.8034 15.3308 43.8842 17.3115 44.917 23.5086C47.2796 26.5011 48.802 30.1236 49.222 33.9561C49.222 34.1524 49.4569 34.4074 49.6851 34.6552C49.7621 34.7389 49.8384 34.8217 49.9046 34.9011C50.377 35.3736 50.8496 35.8461 50.8496 36.3186C50.8496 37.5786 50.7446 38.8386 50.5346 40.0461C50.4296 40.4661 49.9046 40.7811 49.3796 41.0436C49.3082 41.0912 49.2286 41.1415 49.1477 41.1927C48.8719 41.3673 48.5801 41.5518 48.5396 41.6736Z" fill="#CCCCCC"/>
<path d="M27.3821 23.771C28.3797 22.616 27.8547 20.4636 26.0171 20.096C26.4897 18.9936 27.1721 16.7886 27.1721 16.7886C27.1721 16.7886 21.8171 25.1886 21.3447 25.346C20.8721 25.5036 20.3997 23.666 20.3997 23.666C19.4021 27.4986 22.0797 28.0236 22.3947 26.816C23.8647 26.4486 26.3847 24.8736 27.3821 23.771Z" fill="#CCCCCC"/>
<path d="M22.8149 25.8188L25.5449 21.1462C25.5449 21.1462 27.1199 21.9338 26.3324 23.1938C25.3349 24.6638 22.8149 25.8188 22.8149 25.8188Z" fill="#FFD923"/>
<path d="M56.5718 47.4488C55.7842 48.4988 54.8918 49.6012 53.8418 50.6512C60.6142 37.6312 54.1568 25.7138 53.8942 25.2412C54.3668 25.7138 54.8392 26.2388 55.2592 26.7112C60.4568 32.4862 61.0868 41.1488 56.5718 47.4488Z" fill="white"/>
<path d="M62.872 30.7013C60.5094 24.3488 57.1494 18.9413 49.747 14.0588C42.607 9.33383 34.942 9.70127 34.522 9.75383C34.4694 9.75383 34.417 9.75383 34.417 9.75383C34.6794 9.64883 34.942 9.59627 35.2044 9.54383C36.832 9.01883 38.932 8.59883 41.032 8.33631C46.597 7.54881 52.2144 9.43883 56.047 13.4813C56.0994 13.5338 56.0994 13.5338 56.152 13.5863C60.5094 18.2063 62.767 23.9813 62.872 30.7013Z" fill="white"/>
<path d="M48.0668 4.71388C40.2442 3.24388 35.2042 3.97888 31.5818 5.34388C31.4768 4.92388 31.1092 4.08388 30.7942 3.40138C29.6918 4.71388 28.5368 6.28888 27.8018 7.28638C25.8068 8.65133 24.9668 9.96389 24.9668 9.96389C26.1218 6.02638 29.4818 3.08638 33.5768 2.35138C34.7318 2.14138 35.9918 2.03638 37.3568 2.03638C40.9792 2.08888 44.6018 2.98138 48.0668 4.71388Z" fill="white"/>
<path d="M19.1392 14.7939C12.9967 14.5839 15.0442 7.44393 15.1492 7.02393C15.1492 7.07643 15.5692 12.6414 19.1392 14.7939Z" fill="white"/>
<path d="M25.177 1.9314C20.452 4.76638 21.397 11.5389 21.397 11.5389C16.882 4.66138 24.8094 2.0889 25.177 1.9314Z" fill="white"/>
<path d="M17.4071 16.6835C17.7221 16.946 18.0371 17.4185 17.6696 18.101C17.4596 18.4685 17.1446 18.416 16.6721 18.206C16.0421 17.891 12.2621 15.686 8.84961 13.4285C12.7346 14.7935 16.6721 16.2635 17.3021 16.5785C17.3021 16.5785 17.3546 16.631 17.4071 16.6835Z" fill="white"/>
</svg>

<svg xmlns="http://www.w3.org/2000/svg" width="182" height="60" fill="none"><path fill="#fff" d="M71.33 12h7.2v28.8h7.2v-36h-7.2c-3.96 0-7.2 3.24-7.2 7.2ZM92.93 40.8h7.2V26.4c0-3.96-3.24-7.2-7.2-7.2v21.6ZM107.33 19.2v21.6h7.2V26.4h7.2v7.2c0 3.96 3.24 7.2 7.2 7.2V26.4c0-3.96-3.24-7.2-7.2-7.2h-14.4ZM172.13 19.2h-7.2V12c0-3.96-3.24-7.2-7.2-7.2v28.8h-14.4v-7.2h7.2v-7.2h-7.2c-3.96 0-7.2 3.24-7.2 7.2v7.2c0 3.96 3.24 7.2 7.2 7.2h21.6V26.4h7.2v7.2c0 3.96 3.24 7.2 7.2 7.2V26.4c0-3.96-3.24-7.2-7.2-7.2ZM92.93 12h7.2c0-3.96-3.24-7.2-7.2-7.2V12ZM81.514 52.963H78.53v-4.886h2.912v.803h-2.027v1.214h1.811v.803h-1.811v1.264h2.1v.802ZM94.594 48.077h1.036l-1.697 2.394 1.761 2.492H94.66l-1.301-1.836-1.295 1.836h-1.035l1.762-2.492-1.683-2.394h1.035l1.237 1.766 1.215-1.766ZM108.678 51.846l.338.643c-.158.162-.386.295-.683.397a2.78 2.78 0 0 1-.927.154c-.767 0-1.393-.23-1.877-.691-.479-.46-.719-1.07-.719-1.829 0-.726.228-1.329.683-1.808.451-.475 1.081-.712 1.891-.712.642 0 1.153.165 1.531.496l-.395.635a2.056 2.056 0 0 0-1.136-.328c-.479 0-.872.156-1.179.467-.307.312-.46.729-.46 1.25 0 .512.16.926.482 1.243.325.316.745.474 1.258.474.441 0 .839-.13 1.193-.39ZM122.945 52.963h-.877v-2.087h-2.301v2.087h-.884v-4.886h.884v1.996h2.301v-1.996h.877v4.886Z"/><path fill="#fff" fill-rule="evenodd" d="M132.679 52.963h.892l.524-1.25h2.151l.524 1.25h.942l-2.129-4.9h-.776l-2.128 4.9Zm2.495-3.79.733 1.738h-1.473l.74-1.738Z" clip-rule="evenodd"/><path fill="#fff" d="M151.753 48.077v4.886h-.705l-2.768-3.385v3.385h-.826v-4.886h.704l2.768 3.4v-3.4h.827ZM165.443 51.134h-1.216v-.803h2.043v2.025c-.216.21-.504.377-.863.503-.36.12-.7.181-1.021.181-.815 0-1.457-.228-1.928-.684-.464-.452-.697-1.063-.697-1.836 0-.717.231-1.315.69-1.794.461-.484 1.067-.726 1.819-.726.642 0 1.182.165 1.618.496l-.373.684a1.288 1.288 0 0 0-.497-.273 1.982 1.982 0 0 0-.64-.104c-.502 0-.908.153-1.215.46-.311.303-.467.722-.467 1.257 0 .517.156.933.467 1.25.307.311.72.467 1.237.467.182 0 .379-.032.589-.098.211-.07.363-.148.454-.237v-.768ZM179.33 52.963h-2.984v-4.886h2.912v.803h-2.028v1.214h1.812v.803h-1.812v1.264h2.1v.802ZM16.042 33.063l1.68-12.652L3.127 10.278l13.335 4.515 3.15-4.83 11.498-7.14 25.357 13.965 1.313 21.315-11.288 15.698-8.925 1.365 4.62-8.452v-8.138l-3.36-6.352-3.413-2.258-5.25 5.407v5.723l-4.095 3.833-5.197.63-2.31 1.312-3.78-1.208-1.575-5.67 2.835-3.99v-2.94Z"/><path fill="silver" d="M39.352 10.174c-2.782-.578-5.827-.42-5.827-.42s-.998 4.62-7.193 5.827c.053 0 8.19 2.782 13.02-5.407ZM41.872 52.069c3.36-2.625 5.88-6.248 7.035-10.343.053-.157.525-.42.84-.63.525-.315 1.05-.577 1.155-.997.21-1.208.315-2.468.315-3.728 0-.472-.472-.945-.945-1.417-.367-.315-.735-.683-.735-.945-.525-4.778-2.73-9.24-6.247-12.495l-.368.367c3.413 3.203 5.618 7.56 6.09 12.18.053.42.473.84.893 1.26.367.315.787.788.787.998 0 1.207-.105 2.415-.315 3.622-.052.21-.525.42-.892.63-.525.263-.998.525-1.103.945-1.26 4.463-4.147 8.348-7.98 10.868.683-1.47 2.835-6.248 3.99-8.663l-.21-7.77-6.667-6.457-3.78.525-4.148 6.72s1.943 2.467-.787 5.355c-2.678 2.835-4.778 3.465-4.778 3.465l-1.942-1.05c.577-.735 1.732-1.838 2.625-2.573 1.522-1.26 3.045-1.365 3.045-2.73.052-2.835-2.993-2.047-2.993-2.047l-1.102 1.05-.473 3.885-2.31 2.887-.262-.052-3.78-.84s2.31-1.208 2.677-2.573c.368-1.312-.735-5.67-.787-5.932.052.052 1.102.945 1.575 2.415.84-2.31 1.942-4.515 2.257-4.725.315-.21 4.568-2.468 4.568-2.468l-1.418 3.728 1.05-.578 2.52-6.195s2.468-1.207 4.305-1.207c3.308-.053 8.19-4.095 5.985-11.34.63.262 11.55 5.722 13.44 16.432 1.418 8.243-3.255 15.96-11.13 20.423Z"/><path fill="#CCC" d="M29.377 11.329c1.208-1.418.735-3.518.735-3.518l-3.517 5.198c-.053 0 1.26.052 2.782-1.68ZM17.565 39.731l.42-2.1s-1.733 3.045-1.89 3.465c-.158.473.105 1.313.787 1.26.683-.052 1.523-1.05 1.523-1.785 0-.945-.84-.84-.84-.84Z"/><path fill="#CCC" fill-rule="evenodd" d="M48.75 6.341s2.625.105 5.355.42C47.962 1.931 42.135.514 37.41.514c-6.463 0-10.856 2.638-11.177 2.83l-.006.005L28.275.094s-8.19-.788-11.078 7.875c-.735-1.838-1.417-4.515-1.417-4.515s-4.253 3.727-2.258 9.922C8.64 11.591 1.657 9.124 1.395 9.071c-.368-.052-.473.105-.473.105s-.105.158.21.42c.578.473 11.603 8.61 14.018 10.185-.525 1.89-.525 2.783 0 3.675.735 1.208.787 1.838.682 2.73-.105.893-1.05 8.61-1.26 9.555-.085.382-.494 1.157-.946 2.01-.668 1.263-1.427 2.698-1.364 3.293.105.997 1.47 5.25 2.678 5.722.892.315 3.097.998 4.567.998.525 0 .998-.105 1.208-.315.892-.788 1.155-.945 1.785-.945h.157c.12 0 .252.01.394.023.168.014.352.03.551.03.84 0 1.943-.158 2.73-.893.544-.545 1.276-1.183 1.962-1.782.77-.672 1.485-1.295 1.818-1.683.788-.998 1.208-2.363.998-3.728-.158-1.26.525-2.362 1.312-3.465.998-1.312 2.835-3.675 2.835-3.675 3.623 2.73 5.88 6.878 5.88 11.498 0 8.19-7.14 14.805-15.96 14.805a16.93 16.93 0 0 1-3.99-.473c4.043 1.418 7.455 1.89 10.238 1.89 5.932 0 9.082-2.152 9.082-2.152s-1.102 1.417-2.887 3.045h.052c9.818-1.365 14.595-9.45 14.595-9.45s-.367 2.625-.84 4.41c12.74-9.568 10.97-21.48 10.823-22.468l-.004-.027-.004-.028c.065.097.59.736 1.144 1.407.342.416.695.845.956 1.166C66.442 13.324 48.75 6.34 48.75 6.34ZM27.372 42.093l-.462.42c-.22.202-.445.403-.669.601-.418.373-.827.737-1.169 1.08-.21.21-.63.315-1.26.315H22.237c.788-1.05 3.098-3.465 3.885-3.99.945-.63 1.418-1.26.84-2.363-.577-1.102-2.1-.84-2.1-.84s.893-.367 1.68-.367c-.997-.263-2.257 0-2.835.577-.42.385-.513 1.423-.607 2.462-.046.519-.093 1.038-.18 1.476-.236 1.222-.976 1.897-2.109 2.93l-.411.377c-.735.683-1.26.893-1.68.893-.893-.158-1.943-.42-2.678-.683-.525-.682-1.312-2.94-1.522-3.885.113-.378.471-1.055.78-1.64h.001c.12-.228.233-.441.321-.617l.088-.168c.576-1.104.915-1.752 1.015-2.352.21-.893.892-6.405 1.155-8.715.682.892 1.627 2.362 1.417 3.307 1.523-2.152.42-4.252-.105-5.092-.472-.84-1.102-2.52-.577-4.305.525-1.785 2.415-6.72 2.415-6.72s.63 1.102 1.522.892c.893-.21 8.085-11.025 8.085-11.025s1.943 4.253-.105 7.35c-2.1 3.098-4.147 3.675-4.147 3.675s2.887.525 5.565-1.417c1.102 2.572 2.152 5.25 2.205 5.617l-.232.55c-.588 1.4-2.062 4.911-2.236 5.173-.105.105-.84.315-1.365.42-.892.262-1.417.42-1.627.577-.368.315-2.048 4.935-2.835 7.193-.945.262-1.89.787-2.573 1.837.368-.262 1.523-.42 2.363-.525.735-.052 2.992 1.155 3.57 3.413v.105c.105.84-.158 1.627-.578 2.257-.162.202-.73.717-1.27 1.206Zm-3.218-2.452c-.028.509-.075 1.338-.447 1.875.036-.036.148-.154.294-.308l.002-.002v-.001c.276-.291.672-.71.912-.949.163-.147.347-.264.523-.375.388-.246.737-.467.737-.937 0-.735-.998-.893-1.418-.788-.42.105-.525.788-.577 1.155-.012.078-.018.193-.026.33Zm20.5-8.152c.526-2.678.578-4.988.42-6.878 2.048 2.73 3.308 6.038 3.676 9.45.052.42.472.84.892 1.26.368.315.788.735.788.998 0 1.207-.105 2.415-.315 3.622-.05.15-.478.393-.836.597l-.057.033c-.525.263-.997.525-1.102.945a19.549 19.549 0 0 1-6.93 10.133c4.882-5.093 7.245-13.493 3.465-20.16Zm3.886 10.185c-1.155 4.147-3.78 7.822-7.193 10.447C48.592 48.656 53.58 41.254 53.58 32.75c0-11.078-8.4-20.213-19.163-21.368-.367.578-.735 1.103-1.102 1.523.787 1.942 2.835 7.035 2.835 7.297 0 .315-.998 2.888-1.103 2.993-.105.052-1.312.157-1.785.157-.525 1.26-1.05 2.468-1.155 2.625-.157.21-.63.368-1.627.63l-.344.101c-.473.137-.99.288-1.074.372-.262.315-1.68 4.042-2.625 6.667 1.26-.21 2.363.053 2.625.158 2.048-3.885 3.675-5.985 4.095-5.985a2.55 2.55 0 0 1 .28.002c1.165.04 5.334.184 7.07-3.992 1.861-4.55-.759-8.439-.938-8.706l-.007-.01.008.005c.233.113 4.314 2.093 5.347 8.29 2.363 2.993 3.885 6.616 4.305 10.448 0 .196.235.451.463.7.077.083.153.166.22.245.472.473.945.945.945 1.418 0 1.26-.105 2.52-.315 3.727-.105.42-.63.735-1.155.998l-.232.149c-.276.174-.568.359-.608.48Z" clip-rule="evenodd"/><path fill="#CCC" d="M27.382 23.771c.998-1.155.473-3.307-1.365-3.675.473-1.102 1.155-3.307 1.155-3.307s-5.355 8.4-5.827 8.557c-.473.158-.945-1.68-.945-1.68-.998 3.833 1.68 4.358 1.995 3.15 1.47-.367 3.99-1.942 4.987-3.045Z"/><path fill="#FFD923" d="m22.815 25.819 2.73-4.673s1.575.788.787 2.048c-.997 1.47-3.517 2.625-3.517 2.625Z"/><path fill="#fff" d="M56.572 47.449c-.788 1.05-1.68 2.152-2.73 3.202 6.772-13.02.315-24.937.052-25.41.473.473.945.998 1.365 1.47 5.198 5.775 5.828 14.438 1.313 20.738ZM62.872 30.701c-2.363-6.352-5.723-11.76-13.125-16.642-7.14-4.725-14.805-4.358-15.225-4.305h-.105c.262-.105.525-.158.787-.21 1.628-.525 3.728-.945 5.828-1.208 5.565-.787 11.182 1.103 15.015 5.145l.105.105c4.357 4.62 6.615 10.395 6.72 17.115ZM48.067 4.714c-7.823-1.47-12.863-.735-16.485.63-.105-.42-.473-1.26-.788-1.943-1.102 1.313-2.257 2.888-2.992 3.885-1.995 1.365-2.835 2.678-2.835 2.678 1.155-3.938 4.515-6.878 8.61-7.613a21.166 21.166 0 0 1 3.78-.315c3.622.053 7.245.945 10.71 2.678ZM19.14 14.794c-6.143-.21-4.096-7.35-3.99-7.77 0 .052.42 5.617 3.99 7.77ZM25.177 1.931c-4.725 2.835-3.78 9.608-3.78 9.608-4.515-6.878 3.412-9.45 3.78-9.608ZM17.407 16.683c.315.263.63.736.263 1.418-.21.367-.525.315-.998.105-.63-.315-4.41-2.52-7.822-4.777 3.885 1.364 7.822 2.835 8.452 3.15l.105.104Z"/></svg>
